X:1
T:James Gibb editions
T:Cradle song of the Blessed Virgin - Barnby
T:#
%%score [ ( 1 2 ) ( 3 4 ) ] { ( 5 6 ) | ( 7 8 ) }
L:1/8
Q:1/4=69
M:3/4
K:F
V:1 treble nm="Midi_74"
V:2 treble 
V:3 bass nm="Midi_74"
V:4 bass 
V:5 treble nm="Midi_20"
V:6 treble 
V:7 bass 
V:8 bass 
V:1
"^andante grazioso""^Angela Goetze""^Cradle song of the Blessed Virgin""^Joseph Barnby\n(1838-96)" z6 | %1
w: |
 z6 | z6 | z6 | z6 |!p! AC C2 A2 | A4 G2 | Gc c2 G2 | A6 | AD D2 A2 | A4 G2 | GG d2 =B2 | c6 | %13
w: ||||Sleep my babe, and|o'er Thee|An- gels vi- gil|keep,|Si- lent they a-|dore Thee,|Sleep, my ba- by,|sleep;|
!p! GG G2 A2 | A4 G2 | FF A2 c2 | B6 | BA D2 B2 | A4"^1" G2 | FF E2 F2 | G6 |!pp! AC C2 A2 | %22
w: Je- su, sleep, Thy|mo- ther|Holds Thee in her|arm,|May the love she|bears Thee|Shield Thee safe from|harm.||
 A4 G2 | FF B2 d2 | c6 | c c B2 A2 | (A2 G2) D2 | FD E2 G2 | F4 z2 | z6 | z6 | z6 | z6 | z6 | z6 | %35
w: |* * * a-|bove,|Whence Thou * *||||||||||
 z6 | z6 | z6 | z6 | z6 | z6 | z6 | z6 | z6 | z6 |!f! (f2 e2 dA | c2 c4) | (f3 e dA | c6) | %49
w: ||||||||||||Glo- rious Thou shalt|rise,|
 d3 c Fc | c2 B4 | (!courtesy!=e2 d)=B Gd | d2 c2 c2 | f4 c2"^rall." | B2 A2 G2 |"^dim." d6 | c6 | %57
w: Tbou shalt come to|judge us,|Thou * shalt come to|judge us, to|judge us,|Throned in the||Sleep,|
!p!"^a tempo" c4 A2 | A4 G2 | FF B2 d2 | c6 | cc B2 A2 | (A2 G2) D2 | F3 F EF | A6 | G3 G ^FG | %66
w: sleep, and||||Si- lent they a-|dore * Thee,|Sleep, my ba- by,|sleep,|sleep, my ba- by,|
 c6- |!pp! c6 | c6 | c2 z2 z2 | !fermata!z6 |] %71
w: sleep.|||||
V:2
 x6 | x6 | x6 | x6 | x6 | x6 | x6 | x6 | x6 | x4 x2 | x6 | x6 | x6 | EE E2 F2 | F4 E2 | FF F2 _E2 | %16
w: ||||||||||||||||
 D6 | CC C2 D2 | C4 B,2 | =B,B, B,2 B,2 | C6 | CC C2 C2 | E4 E2 | FF F2 F2 | (G2- F2) _E2- | %25
w: |||||Sleep, my babe, still|dream- ing|Of Thy home a-|bove, * Whence|
 E_E D2 ^F2 | (^F2 G2) D2 | FD E2 E2 | F4 z2 | x4 x2 | x4 x2 | x6 | x6 | x6 | x6 | x6 | x6 | x6 | %38
w: * Thou cam'st to|save * us,||||||||||||
 x6 | x6 | x6 | x4 x2 | x4 x2 | x4 x2 | x4 x2 | F2 F2 FF | E2 E4 | F3 F FF | E6 | F3 F FF | F2 F4 | %51
w: |||||||||||||
 (G2 F)F FF | F2 E2 E2 | F4 _E2 | D2 C2 B,2 | F6 | E6 | FC C2 F2 | E4 E2 | FF F2 F2 | %60
w: ||||skies.|Sleep,|sleep, my babe, and|o'er Thee|An- gels vi- gil|
 (G2 F2) _E2- | E_E D2 ^F2 | (^F2 G2) D2 | F2 z2 z2 | z2 C2 C2 | D3 z z2 | E2 E2 E2 | F4 z2 | %68
w: keep, * Si\-|* lent they a-|dore * Thee,|Sleep,|sleep, my|babe,|sleep, ba- by,|sleep,|
 F4 z2 | F6- | F2 z2 z2 |] %71
w: sleep,|sleep.||
V:3
 z6 | z6 | z6 | z6 | z6 | z6 | z6 | z6 | z6 | z6 | z6 | z6 | z6 |!p! C6- | C6 | (A,2 C2) A,2 | %16
w: |||||||||||||Sleep,||Je\- * su,~sleep,|
 B,6 | ^F,F, F,2 F,2 | G,4 G,2 | D,D, G,2 F,2 | E,6 |!pp! A,A, A,2 A,2 | B,4 B,2 | B,B, B,2 B,2 | %24
w: ||||||||
 (B,2 A,2) A,2- | A,A, B,2 C2 | (C2 B,2) G,2 | A,F, G,2 B,2 | A,4 z2 |!mf! x6 | x6 | x6 | x6 | %33
w: |||||||||
!f! x6 | C,2 B,,4 | F,3 F, E,F, | G,4 z2 |!mp! =B,3 B, CD | D2 C4 | D3 D EF | E6 | %41
w: |le- gions|Shall in ter- ror|quail.|Thou shalt suf- fer|tor- ment,|Thou Thy life shall|give,|
"^dim." F3 F _EE | (_E2 _D2) C2 |"^cresc." B,3 B, =B,B, | C6 |!f! A,2 A,2 A,A, | B,2 B,4 | %47
w: Thou shalt die for|sin\- * ners,|that the sin- ners|live.|Je- su, Thou shalt|tri- umph,|
 A,3 A, A,A, | (B,2 C2 B,2) | A,3 A, _EE | _E2 D4 | G,3 G, =B,B, | C2 C2 C2 | C4 F,2 | %54
w: |||||||
 F,2 F,2 F,2 | B,6 | B,6 | A,A, A,2 A,2 | B,4 B,2 | B,B, B,2 B,2 | B,2 A,2 A,2- | A,A, B,2 C2 | %62
w: ||||||||
 (C2 B,2) G,2 | A,3 z z2 | z2 A,2 A,2 | B,3 z z2 | B,2 C2 B,2 |!pp!"^morendo" A,4 z2 | A,4 z2 | %69
w: |||||||
 A,6- | A,2 z2 !fermata!z2 |] %71
w: ||
V:4
 x6 | x6 | x6 | x6 | x6 | x6 | x6 | x6 | x6 | x6 | x6 | x6 | x6 | x6 | x6 | F,6 | B,,6 | %17
w: |||||||||||||||Sleep,|sleep,|
 D,D, D,2 D,2 | G,4 G,2 | G,,G,, G,,2 G,,2 | C,6 | C,C, C,2 C,2 | ^C,4 C,2 | D,D, D,2 D,2 | %24
w: |||||||
 (E,2 F,2) ^F,2- | F,^F, G,2 D,2 | G,,4 B,,2 | C,C, C,2 C,2 | F,4 z2 | B,3 B, A,A, | G,2 F,4 | %31
w: |||By Thy Fa- ther's|love.|Earth- ly pomp may|tempt Thee,|
 B,3 B, A,G, | F,6 | _E,3 E, D,D, | x6 | x6 | x6 | z6 | z6 | z6 | z6 | z6 | z6 | z6 | z6 | %45
w: Earth- ly sin as-|sail,|But the tem- pter's||||||||||||
 C,2 C,2 C,C, | C,2 C,4 | C,3 C, .C,A, | (G,2 C,4) | F,3 F, A,A, | B,2 B,4 | G,3 G, G,G, | %52
w: |||||||
 C2 C2 !courtesy!_B,2 | A,4 A,,2 | B,,2 C,2 D,2 | G,,6 | C,6 | C,C, C,2 C,2 | ^C,4 C,2 | %59
w: |||||||
 D,D, D,2 D,2 | (E,2 F,2) ^F,2- | F,^F, G,2 D,2 | G,,4 B,,2 | C,3 z z2 | z2 C,2 C,2 | C,3 z z2 | %66
w: |||||||
 C,2 C,2 C,2 | F,4 z2 | F,4 z2 | F,6- | !fermata!F,2 z2 !fermata!z2 |] %71
w: |||||
V:5
"^andante grazioso"!p! F6- | (FC) C4 | (GC) C4 | AC C2 C2 | (AC) C2 C2 | (AC) C2 A2 | (AD) D2 G2 | %7
 (GC) C2 G2 | (AC) C2 C2 | (AD) D2 A2 | (AD) D2 G2 | G2 d2 =B2 | [Cc]4 z2 |!p! [EG]2 [EG]2 [CFA]2 | %14
 ([FA]C) C2 [EG]2 | F2 [FA]2 [_Ec]2 | (BF) F2 B2 | (BA) D2 [DB]2 | A2 D2 G2 | F2 E2 [=B,F]2 | %20
 [CG]2 C2 C2 | [A,CA]2 [A,C]2 [A,CA]2 | A4 [B,EG]2 | [B,F]2 [B,FB]2 [Fd]2 | c6- | %25
 c2 [DB]2 [C^FA]2 | [C^FA]2 [B,G]2 [G,D]2 | [A,F][F,D] [G,E]2 [B,EG]2 | [A,F]2 F2 F2 | %29
"^mj" [DFB]4 [C_EA]2 | [B,G]2 [A,F]4 | [B,FB]4 AG | [CF]6 | [_E,B,_E]4 [F,B,D]2 | z6 | %35
 [F,F]3 [F,F] [E,E][F,F] | [CG]4 z2 |!mp! =B3 Bcd | d2 c4 | d3 def | e6 | f3 f_ee | (_e2 _d2) c2 | %43
 B3 B =B2 | [Ec]6 |!f! ([Fcf]2 [Fce]2 dA | [Ec]6) | (f3 e dA) | [Ec]6 | d3 cFc | [Fc]2 [FB]4 | %51
 e2 d[G=B]Gd | [Fd]2 [Ec]2 [EGc]2 | [Ff]4 [_EFc]2 |"^rall." [DFB]2 [CFA]2"^dim." [B,FG]2 | [FGd]6 | %56
 [EGc]6 | c4 [CFA]2 | [B,EA]4 [B,EG]2 | [B,F]2 [B,FB]2 d2 | c6- | c2 B2 [C^FA]2 | %62
 [C^FA]2 [B,G]2 D2 | F3 FEF | A6 | [DG]3 G^FG | c6 |!pp! FC C2- [CEG]2 | FC C2- [CEG]2 | %69
 z2 a2 c'2 | f'6 |] %71
V:6
 z2 [^G,=B,]2 [!courtesy!^G,!courtesy!=B,]2 | [A,C]4 z2 | B,4 z2 | A,4 x2 | A,4 A,2 | A,4 A,2 | %6
 B,4 B,2 | B,4 B,2 | A,4 A,2 | D4 C2 | =B,4 B,2 | C2 =B,2 D2 | x4 x2 | C4 x2 | x4 x2 | x4 x2 | %16
 D4 x2 | D6 | D4 D2 | =B,4 x2 | x4 x2 | x4 x2 | [B,E]2 [B,E]2 x2 | x4 x2 | G2 F2 _E2- | E2 x4 | %26
 x2 x4 | x4 x2 | x4 x2 | x4 x2 | _E4 C2 | x4 [B,_D]2 | B,2 A,4 | x4 x2 | x4 x2 | =B,4 B,2 | x4 x2 | %37
 [DF]2 [DF]2 [DF]2 | E2 E2 E2 | [F_A]2 [FA]2 [FA]2 | G2 G2 G2 | F4 _A2 | =A4 _G2 | F4 F2 | x4 x2 | %45
 x4 F2 | A2 G4 | F2 F2 F2 | G2 A2 G2 | F2 F2 F2 | x4 x2 | G2 F2 F2 | G4 x2 | x4 x2 | x4 x2 | %55
 x4 x2 | x4 x2 | F2 C2 x2 | x4 x2 | x4 F2 | G2 F2 _E2- | E2 _E2 x2 | x4 x2 | x4 x2 | %64
 x2 [CF]2 [CF]2 | x2 x x x2 | [EG]2 [EA]2 [EG]2 | x4 x2 | x4 x2 | [A,CF]6- | [A,CF]6 |] %71
V:7
 z2!p! D,2 D,2 | F,4 z2 | E,4 z2 | C,4 C,2 | C,4 C,2 | C,4 C,2 | D,4 D,2 | E,4 E,2 | F,4 F,2 | %9
"^1" F,4 F,2 | [D,F,]4 [D,F,]2 | E,2 F,2 F,2 | F,2 (G,2 C2) |!p! B,4 A,2 | B,4 B,2 | A,2 C2 A,2 | %16
 B,6 | [^F,C]4 [F,C]2 | C4 B,2 | D,2 G,2 F,2 | E,2 C,2 C,2 | C,2 C,2 C,2 | ^C,2 C,2 C,2 | %23
 D,2 D,2 B,2 | B,2 A,2 [^F,A,-]2 | [F,A,]2 [G,B,]2 D,2 | G,,4 B,,2 | C,2 C,2 C,2 | F,2 F,2 F,2 | %29
 F,,6- | F,,2 F,,2 _E,,2 | D,,2 D,,2 !courtesy!=E,,2 | F,,4 F,,2 | G,,4 F,,2 | [_G,A,C]2 [F,B,]4 | %35
 x6 | E,2 G,2 C2 |!mp! _A,2 A,2 A,2 | G,2 G,2 G,2 | =B,2 B,2 B,2 | C2 C4 |"^dim." C4 C2 | %42
 C2 _D2 !courtesy!=A,2 |"^cresc." B,2 F,2 G,2 | G,2 C2 C2 | [A,C]2 [A,C]2 [A,C]2 | B,2 B,2 B,2 | %47
 [A,C]2 [A,C]2 [A,C]2 | B,2 C2 B,2 | A,2 A,2 [A,_E]2 | _E2 D4 | =B,2 B,2 B,2 | C2 C2 C2 | C4 F,2 | %54
 F,4 F,2 | B,6 | B,6 |"^a tempo" [C,A,]2 [C,A,]2 A,2 | ^C,2 C,4 | D,2 D,2 B,2 | B,2 A,2 [^F,A,]2- | %61
 [F,A,]2 [G,B,]2 D,2 | (G,,4 G,2 | A,3) z z2 | z2 A,2 A,2 | B,3 z z2 | B,2 C2 B,2 | %67
"^morendo" A,4 B,2 | A,4 B,2 | x6 | x6 |] %71
V:8
 x4 x2 | C,4 z2 | C,4 z2 | F,,4 F,,2 | F,,4 F,,2 | F,,4 F,,2 | F,,4 F,,2 | F,,4 F,,2 | F,,4 F,2 | %9
 D,4 D,2 | G,,4 G,,2 | G,,2 G,,2 G,,2 | C,4 z2 | C,4 z2 | C,4 z2 | F,4 F,2 | B,,6 | D,4 D,2 | %18
 G,4 G,2 | G,,4 G,,2 | C,2 C,2 C,2 | F,,2 F,,2 F,,2 | F,,2 F,,2 F,,2 | F,,2 F,,2 D,2 | %24
 E,2 F,2 ^F,2- | B,,4 x2 | x4 x2 | x6 | x6 | x6 | x6 | x6 | x6 | x6 | _E,,2 D,,4 | _D,,4 D,,2 | %36
 z4 z2 | C,2 C,2 C,2 | C,2 C,2 C,2 | C,2 C,2 C,2 | C,2 (C2 B,2) | _A,4 _G,2 | F,4 _E,2 | %43
 _D,4 =D,G,, | C,6 | C,2 C,2 C,2 | C,2 C,2 C,2 | C,2 C,2 C,2 | C,6 | F,2 F,2 F,2 | B,2 B,2 _A,2 | %51
 G,2 G,2 G,2 | z2 C2 !courtesy!_B,2 | A,4 A,,2 | B,,2 C,2 D,2 | G,,6 | C,6 | F,,2 F,,2 [F,,C,]2 | %58
 F,,2 F,,4 | F,,2 F,,2 D,2 | E,2 F,2 x2 | B,,4 x2 | x4 B,,2 | C,3 z z2 | z2 C,2 C,2 | C,3 z z2 | %66
 C,2 C,2 C,2 | F,,6- | F,,6 | F,,6 | !fermata!F,,6 |] %71

